X: 43104
T: Windmill, The
R: reel
M: 4/4
K: Dmajor
(3ABc|:d2 fd ceAc|dBGB AFDF|GB B2 Adfd|eAce afge|
d2 fd ceAc|dBGB AFDF|GFGA Bdfa|1 gece d2 (3ABc:|2 gece defg||
|:eA A2 a3 f|gA A2 dGBd|eA A2 G3 F|E2 EF GABc|
[1 dA A2 eA A2|fA A2 gfed|cdef gfga|gece defg:|
[2 d2 fd ceAc|dBGB AFDF|GB B2 Adfd|ec (3ABc d2||

